X: 12
T: JIGS: Dusty Windowsills Set
T: Atholl Highlanders
C: C: Trad. / Johnny Harling; S: Various
C: Set Leaders: André, Sophie
Z: Oleg Naumov arr.; Mix O'Lydian / glauber at The Session
N: https://thesession.org/members/26966/sets/96710
R: Jig
M: 6/8
L: 1/8
Q: 3/8=116
K: Amix
|:"A"e2e ecA|"A"ecA "E"Bcd|"A"e2 e ecA|"E"Bcd cBA|
"A"e2e ecA|"A"ecA "E"Bcd|"A"eae "D"fed|"E"cdB "(A)"A3:||
|:"A"Ace Ace|"D (D/F#)"Adf Adf|"A"Ace Ace|"E"Bcd c2 B|
"A"Ace Ace|"D (D/F#)"Adf Adf|"A"eae "D"fed|"E"cdB "(A)"A3:||
|:"A"aee edc|aee edc|aee edc|"E"Bcd cBA|
"A"aee edc|aee edc|"A"aee "D"fed|"E"cdB "(A)"A3:||
|:"A"cAc cAc|"D (Bm)"dBd dBd|"A"cAc cAc|"G"BGB BGB|
"A"cAc cAc|"D (Bm)"dcd Bcd|"A"eae "D"fed|"E"cdB "(A)"A3:||
T: Dusty Windowsills
K: Ador
|:"Am"A2B cBA|"(C)"eAB cBA|"G"GAG EGG|"D"DGG "C"EG"G/B"G|
"Am"A2B cBA|"(C)"e2d efg|"Em"age dBG|"D"BAG A3:||
|:"Am"aba age|"(D)"def "(G)"gfg|"(Em)"gag "Em"gfe|"D"dBA GFG|
"Em"EGG "(D)"DGG|"G"EGG ABc|"C"Bed BAG|"D"BAG A3:||
|:"Am"ABA "G"gA"Am"f|ABA edB|"G"GFG "G/C"eG"G"d|GFG "(Em)"edB|
"Am"ABA gAf|"G/B"ABA efg|"C"age dBG|"D"BAG A3:||

